public/assets/images/process/02.svg

<svg width="32" height="27" viewBox="0 0 32 27" fill="none" xmlns="http://www.w3.org/2000/svg">
<path d="M16.7969 24.4635H7.60837C7.98556 23.8526 8.20125 23.0897 8.20125 22.3704V5.27582C8.20125 3.76495 9.43162 2.53563 10.9436 2.53563H23.3217C24.8326 2.53563 26.0629 3.76495 26.0629 5.27582V11.5658C26.0629 12.0939 26.4911 12.5221 27.0192 12.5221C27.5472 12.5221 27.9754 12.0939 27.9754 11.5658V5.27582C27.9754 2.70988 25.8876 0.62207 23.3217 0.62207H10.9425C8.3755 0.62207 6.28875 2.70988 6.28875 5.27582V14.8543H4.83206C2.26506 14.8543 0.177246 16.9431 0.177246 19.5101V22.3672C0.177246 24.5634 1.95481 26.3505 4.151 26.3707C4.16268 26.3707 4.17331 26.3771 4.185 26.3771H16.7969C17.3249 26.3771 17.7531 25.9489 17.7531 25.4208C17.7531 24.8928 17.3249 24.4635 16.7969 24.4635ZM2.08975 22.3672V19.5101C2.08975 17.9971 3.32012 16.7678 4.83206 16.7678H6.28875V22.3491C6.28875 22.3544 6.28556 22.3587 6.28556 22.3651C6.28556 23.5221 5.34418 24.4624 4.185 24.4624C3.03006 24.4603 2.08975 23.5221 2.08975 22.3672Z" fill="#0F62FE"/>
<path d="M22.3219 8.2666H11.9455C11.4174 8.2666 10.9893 8.69479 10.9893 9.22285C10.9893 9.75091 11.4174 10.1791 11.9455 10.1791H22.3219C22.8499 10.1791 23.2781 9.75091 23.2781 9.22285C23.2781 8.69479 22.8499 8.2666 22.3219 8.2666Z" fill="#0F62FE"/>
<path d="M22.3219 12.543H11.9455C11.4174 12.543 10.9893 12.9712 10.9893 13.4992C10.9893 14.0273 11.4174 14.4555 11.9455 14.4555H22.3219C22.8499 14.4555 23.2781 14.0273 23.2781 13.4992C23.2781 12.9712 22.8499 12.543 22.3219 12.543Z" fill="#0F62FE"/>
<path d="M17.1337 16.8184H11.9455C11.4174 16.8184 10.9893 17.2465 10.9893 17.7746C10.9893 18.3027 11.4174 18.7309 11.9455 18.7309H17.1337C17.6618 18.7309 18.0899 18.3027 18.0899 17.7746C18.0899 17.2465 17.6618 16.8184 17.1337 16.8184Z" fill="#0F62FE"/>
<path d="M30.9748 14.8386C30.9748 14.8375 30.9748 14.8375 30.9748 14.8386C29.8454 13.7102 28.0094 13.7102 26.8821 14.8375L20.336 21.3825C20.0938 21.6259 19.9365 21.934 19.8791 22.2708L19.52 24.3937C19.4318 24.9185 19.6039 25.4562 19.9801 25.8323C20.2903 26.1436 20.7121 26.3147 21.1456 26.3147C21.2359 26.3147 21.3273 26.3062 21.4187 26.2924L23.5405 25.9332C23.8805 25.8759 24.1886 25.7175 24.4309 25.4742L30.9748 18.9303C32.1032 17.803 32.1032 15.9659 30.9748 14.8386ZM23.1399 24.0611L21.4686 24.3437L21.7513 22.6735L26.2276 18.1982L27.6163 19.5869L23.1399 24.0611ZM29.6223 17.5788L28.9667 18.2344L27.578 16.8457L28.2336 16.1901C28.6161 15.8076 29.2387 15.8055 29.6223 16.1901C30.0048 16.5737 30.0048 17.1963 29.6223 17.5788Z" fill="#0F62FE"/>
</svg>

<svg xmlns="http://www.w3.org/2000/svg" width="32" height="27" fill="none" viewBox="0 0 32 27"><path fill="#0f62fe" d="M16.797 24.464H7.608a4.1 4.1 0 0 0 .593-2.094V5.276c0-1.511 1.23-2.74 2.743-2.74h12.378c1.51 0 2.74 1.229 2.74 2.74v6.29a.956.956 0 0 0 1.913 0v-6.29A4.66 4.66 0 0 0 23.322.622h-12.38A4.66 4.66 0 0 0 6.29 5.276v9.578H4.832A4.66 4.66 0 0 0 .177 19.51v2.857a4.01 4.01 0 0 0 3.974 4.004c.012 0 .022.006.034.006h12.612a.956.956 0 0 0 0-1.913M2.09 22.367V19.51a2.745 2.745 0 0 1 2.742-2.742H6.29v5.581l-.003.016a2.1 2.1 0 0 1-2.101 2.097 2.1 2.1 0 0 1-2.095-2.095"/><path fill="#0f62fe" d="M22.322 8.267H11.946a.956.956 0 0 0 0 1.912h10.376a.956.956 0 0 0 0-1.912m0 4.276H11.946a.956.956 0 0 0 0 1.913h10.376a.956.956 0 0 0 0-1.913m-5.188 4.275h-5.189a.956.956 0 1 0 0 1.913h5.189a.956.956 0 0 0 0-1.913m13.841-1.979q0-.003 0 0a2.9 2.9 0 0 0-4.093-.002l-6.546 6.546c-.242.243-.4.551-.457.888l-.359 2.123a1.65 1.65 0 0 0 1.626 1.92q.135 0 .273-.022l2.122-.359c.34-.057.648-.215.89-.459l6.544-6.544a2.896 2.896 0 0 0 0-4.091M23.14 24.06l-1.671.283.282-1.67 4.477-4.476 1.388 1.389zm6.482-6.482-.655.655-1.389-1.388.656-.656a.982.982 0 1 1 1.388 1.389"/></svg>
